X: 1
T: Myra's Jig
C: Ian Lowthian
R: jig
Z: 2004 John Chambers <jc:trillian.mit.edu>
M: 6/8
L: 1/8
K: A
e \
| "A"cBA AfA | "A"eAf ecA | "A"cBA    ECE | "D"F3 "E7"F2e \
| "A"cBA AfA | "A"eAf ade | "A"cBA "D"FEF | "A"A3     A2 :|
|: f \
| "A"e3/f3/- "(D)"fa2- | "A"afe cBA | "A"e2f "F#m"afe | "Bm"cBB "E7"B2f \
| "A"e3/f3/- "(D)"fa2- | "A"afe cBA | "D"BAc  "E7"BAF | "A"A3 A2 :|
